X: 26
M: 4/4
L: 1/8
K: D
| A2A>B A>GF>f |1 g>fe>d B>c d>B :|2 g>fe>d B>cd>e ||
|: f2f>e f2f>e | "a."f>ef>d B>cd>e |\
f2f>e f2f>g |1a>fe>d B>cd>e :|2 a>fe>c B>c!D.C.!d>B |]
P: VAR:
"a."f2 |] y8 y8 y8 y8 y8 y8 y8 y8 y8 y8


